resources/images/logo.svg

<svg width="198" height="60" viewBox="0 0 198 60" fill="none" xmlns="http://www.w3.org/2000/svg">
    <g clip-path="url(#clip0_1729_21)">
        <path d="M48.6797 7.41992H58.0759L63.1438 21.3604L68.2126 7.41992H77.6089L67.8614 28.5847H58.4266L48.6797 7.41992Z" fill="#95C11F"/>
        <path d="M79.5625 7.41977H87.8282V28.5846H79.5625V7.41977ZM79.5625 0H87.8282V4.99827H79.5625V0Z" fill="#95C11F"/>
        <path d="M100.81 21.985C100.927 22.7658 101.239 23.3522 101.98 23.7812C102.72 24.2112 103.812 24.4451 105.645 24.4451C107.477 24.4451 109.426 24.0932 109.426 22.5703C109.426 21.4378 108.608 21.1651 106.581 20.8915L99.2117 19.9934C94.3383 19.408 91.9206 17.6896 91.9206 14.0971C91.9206 8.35658 96.8333 6.56055 104.748 6.56055C110.402 6.56055 117.419 7.57586 117.926 13.5894H108.647C108.53 12.6913 107.984 12.1059 107.165 11.7927C106.346 11.4414 105.255 11.325 104.202 11.325C101.824 11.325 100.42 11.8709 100.42 13.3161C100.42 13.9797 100.927 14.527 103.072 14.7997L110.206 15.581C115.938 16.2051 118.706 17.924 118.706 22.1021C118.706 27.1398 114.027 29.4434 105.177 29.4434C99.3289 29.4434 91.4143 28.3888 91.2188 21.985H100.81H100.81Z" fill="#95C11F"/>
        <path d="M122.102 7.41977H130.367V28.5846H122.102V7.41977ZM122.102 0H130.367V4.99827H122.102V0Z" fill="#95C11F"/>
        <path d="M132.703 7.41987H137.031V0.704102H145.296V7.41987H150.755V12.8876H145.296V21.3995C145.296 23.2743 145.803 23.5865 147.987 23.5865C149.039 23.5865 149.819 23.5479 150.911 23.5089V28.663C149.234 28.9366 147.09 29.0539 144.633 29.0539C139.215 29.0539 137.031 27.7262 137.031 23.157V12.8876H132.703V7.41987Z" fill="#95C11F"/>
        <path d="M61.2201 47.6525C61.0484 46.5985 60.2541 45.8683 57.8922 45.8683C56.1752 45.8683 55.2301 46.3631 55.2301 47.3734C55.2301 47.8668 55.6168 48.1906 56.3684 48.3198C57.6346 48.5561 61.585 49.136 63.0878 49.3734C65.9437 49.8667 67.6607 51.0499 67.6607 53.7384C67.6607 58.9417 60.9197 58.9843 58.8155 58.9843C53.6198 58.9843 49.8412 58.0604 49.5625 53.7814H55.6168C55.7238 54.9417 56.4111 55.6733 59.0516 55.6733C60.3399 55.6733 61.7352 55.372 61.7352 54.0606C61.7352 53.2654 61.0915 52.9637 59.309 52.6847L54.1994 51.9106C51.0437 51.4582 49.8197 49.8666 49.8197 47.5674C49.8197 45.5674 51.0653 42.6855 57.7852 42.6855C63.3665 42.6855 66.6732 44.0402 67.0166 47.6523H61.22L61.2201 47.6525Z" fill="#1F294C"/>
        <path d="M68.5469 55.5666L78.2081 46.599H69.2123V43.1592H85.0566V46.17L75.4597 55.0718H84.906V58.512H68.5469V55.5666Z" fill="#1F294C"/>
        <path d="M105.734 52.5987C105.112 55.9318 103.307 58.9847 96.0297 58.9847C89.5242 58.9847 86.3906 56.147 86.3906 50.8356C86.3906 45.6964 89.3745 42.6855 96.0297 42.6855C100.731 42.6855 104.553 43.7396 105.691 49.0715H100.001C99.7002 47.9542 98.9492 46.1263 96.0512 46.1263C92.8519 46.1263 91.8 48.2982 91.8 50.8356C91.8 53.3731 92.7449 55.544 96.0512 55.544C98.3699 55.544 99.7219 54.4045 100.066 52.5987H105.734H105.734Z" fill="#1F294C"/>
        <path d="M106.703 55.5666L116.364 46.599H107.368V43.1592H123.212V46.17L113.616 55.0718H123.062V58.512H106.703V55.5666Z" fill="#1F294C"/>
        <path d="M125.336 43.1592H140.686V46.4712H130.445V49.244H140.042V52.4262H130.445V55.2009H140.686V58.5118H125.336V43.1592Z" fill="#1F294C"/>
        <path d="M161.391 52.5987C160.768 55.9318 158.964 58.9847 151.686 58.9847C145.181 58.9847 142.047 56.147 142.047 50.8356C142.047 45.6964 145.031 42.6855 151.686 42.6855C156.388 42.6855 160.21 43.7396 161.348 49.0715H155.658C155.358 47.9542 154.606 46.1263 151.708 46.1263C148.509 46.1263 147.457 48.2982 147.457 50.8356C147.457 53.3731 148.402 55.544 151.708 55.544C154.027 55.544 155.38 54.4045 155.723 52.5987H161.391H161.391Z" fill="#1F294C"/>
        <path d="M163.578 43.1592H168.687V58.512H163.578V43.1592Z" fill="#1F294C"/>
        <path d="M171.844 43.1592H177.726L184.833 52.7702H184.875V43.1592H189.814V58.5118H184.167L176.824 48.814H176.781V58.5118H171.844V43.1592Z" fill="#1F294C"/>
        <path d="M193.127 54.2541H197.936V58.512H193.127V54.2541ZM193.062 43.1592H198L197.377 53.0715H193.685L193.062 43.1592Z" fill="#1F294C"/>
        <path d="M14.8686 36.8143H25.3452L27.1196 24.1232H16.6435L14.8686 36.8143ZM0 42.5699V36.8143H9.04129L10.8135 24.1232H2.197V18.3677H11.5752L14.0251 1.02148H19.8553L17.4036 18.3677H27.8796L30.3314 1.02148H36.1596L33.7097 18.3677H41.2283V24.1232H32.9498L31.1753 36.8143H38.8629V42.5699H30.3314L27.8796 60.0001H22.0514L24.5009 42.5699H14.0252L11.5753 60.0001H5.74476L8.19467 42.5699H0Z" fill="#95C11F"/>
    </g>
    <defs>
        <clipPath id="clip0_1729_21">
            <rect width="198" height="60" fill="white"/>
        </clipPath>
    </defs>
</svg>

<svg width="198" height="60" fill="none" xmlns="http://www.w3.org/2000/svg"><g clip-path="url(#clip0_1729_21)"><path d="M48.68 7.42h9.396l5.068 13.94 5.069-13.94h9.396L67.86 28.585h-9.434L48.68 7.42ZM79.563 7.42h8.265v21.165h-8.266V7.42Zm0-7.42h8.265v4.998h-8.266V0ZM100.81 21.985c.117.78.429 1.367 1.17 1.796.74.43 1.832.664 3.665.664 1.832 0 3.781-.352 3.781-1.875 0-1.132-.818-1.405-2.845-1.678l-7.37-.899c-4.873-.585-7.29-2.303-7.29-5.896 0-5.74 4.912-7.536 12.827-7.536 5.654 0 12.671 1.015 13.178 7.028h-9.279c-.117-.898-.663-1.483-1.482-1.796-.819-.352-1.91-.468-2.963-.468-2.378 0-3.782.546-3.782 1.991 0 .664.507 1.211 2.652 1.484l7.134.781c5.732.624 8.5 2.343 8.5 6.521 0 5.038-4.679 7.341-13.529 7.341-5.848 0-13.763-1.054-13.958-7.458h9.591ZM122.102 7.42h8.265v21.165h-8.265V7.42Zm0-7.42h8.265v4.998h-8.265V0ZM132.703 7.42h4.328V.704h8.265V7.42h5.459v5.468h-5.459v8.511c0 1.875.507 2.188 2.691 2.188 1.052 0 1.832-.04 2.924-.078v5.154c-1.677.274-3.821.39-6.278.39-5.418 0-7.602-1.327-7.602-5.896v-10.27h-4.328V7.42Z" fill="#95C11F"/><path d="M61.22 47.653c-.172-1.054-.966-1.785-3.328-1.785-1.717 0-2.662.495-2.662 1.505 0 .494.387.818 1.138.947 1.267.236 5.217.816 6.72 1.053 2.856.494 4.573 1.677 4.573 4.365 0 5.204-6.741 5.246-8.846 5.246-5.195 0-8.974-.924-9.252-5.203h6.054c.107 1.16.794 1.892 3.435 1.892 1.288 0 2.683-.301 2.683-1.612 0-.796-.643-1.097-2.426-1.376l-5.11-.774c-3.155-.453-4.38-2.044-4.38-4.344 0-2 1.246-4.882 7.966-4.882 5.582 0 8.888 1.355 9.232 4.967H61.22ZM68.547 55.567l9.661-8.968h-8.996v-3.44h15.845v3.011l-9.597 8.902h9.446v3.44h-16.36v-2.945ZM105.734 52.599c-.622 3.333-2.427 6.386-9.704 6.386-6.506 0-9.64-2.838-9.64-8.15 0-5.139 2.984-8.15 9.64-8.15 4.701 0 8.523 1.055 9.661 6.386h-5.69c-.3-1.117-1.052-2.945-3.95-2.945-3.2 0-4.251 2.172-4.251 4.71 0 2.537.945 4.708 4.251 4.708 2.319 0 3.67-1.14 4.015-2.945h5.668ZM106.703 55.567l9.661-8.968h-8.996v-3.44h15.844v3.011l-9.596 8.902h9.446v3.44h-16.359v-2.945ZM125.336 43.16h15.35v3.311h-10.241v2.773h9.597v3.182h-9.597v2.775h10.241v3.31h-15.35V43.16ZM161.391 52.599c-.623 3.333-2.427 6.386-9.705 6.386-6.505 0-9.639-2.838-9.639-8.15 0-5.139 2.984-8.15 9.639-8.15 4.702 0 8.524 1.055 9.662 6.386h-5.69c-.3-1.117-1.052-2.945-3.95-2.945-3.199 0-4.251 2.172-4.251 4.71 0 2.537.945 4.708 4.251 4.708 2.319 0 3.672-1.14 4.015-2.945h5.668ZM163.578 43.16h5.109v15.352h-5.109V43.159ZM171.844 43.16h5.882l7.107 9.61h.042v-9.61h4.939v15.352h-5.647l-7.343-9.698h-.043v9.698h-4.937V43.159ZM193.127 54.254h4.809v4.258h-4.809v-4.258Zm-.065-11.095H198l-.623 9.913h-3.692l-.623-9.913Z" fill="#1F294C"/><path d="M14.869 36.814h10.476l1.775-12.69H16.643l-1.774 12.69ZM0 42.57v-5.756h9.041l1.772-12.69H2.197v-5.756h9.378l2.45-17.347h5.83l-2.451 17.347H27.88L30.33 1.02h5.829l-2.45 17.347h7.518v5.755H32.95l-1.775 12.691h7.688v5.756H30.33L27.88 60H22.05l2.45-17.43H14.025L11.575 60h-5.83l2.45-17.43H0Z" fill="#95C11F"/></g></svg>
